X: 305602
M: 2/4
L: 1/16
K: D
dcde fedc | dAFD DFAc | dAeA fAgA | fAeA dcBA |\
dcde fedc | Beed dcBA | AdAe AdAe | Bgec d2 :|
|: ef |\
gefd ecdB | AdAF GFED | FDAF dAfd | gefd BdAF |\


